svg/blobs-icons/no-decorations/fuel-jerry-can.svg

<svg xmlns="http://www.w3.org/2000/svg" xmlns:xlink="http://www.w3.org/1999/xlink" preserveAspectRatio="xMidYMid" width="179" height="216" viewBox="0 0 179 216"><defs><style>.cls-3{fill:#142a3b}.cls-4{fill:#060606;opacity:.35}.cls-6{fill:#fbb713}.cls-10{fill:#ededed}</style></defs><g id="group-21svg"><path d="M166.337.011s-49.313.0-49.313.0C109.71.011 104.094 6.008 103.959 13.32 103.827 20.419 98.03 26.135 90.898 26.135H58.653c-5.348.0-10.477 2.125-14.258 5.906L13.528 62.908c-3.782 3.78-5.907 8.91-5.907 14.259V202.481c0 7.214 5.848 13.062 13.063 13.062H166.337c7.214.0 13.062-5.84800000000001 13.062-13.062V30.054s0-3.919.0-3.919.0-13.062.0-13.062C179.399 5.858 173.551.011 166.337.011zM157.846 26.135s-28.739.0-28.739.0C126.221 26.135 123.882 23.796 123.882 20.911c0-2.886 2.339-5.226 5.22499999999999-5.226h28.739C160.732 15.685 163.071 18.025 163.071 20.911c0 2.885-2.339 5.224-5.22499999999999 5.224z" id="path-1" class="cls-3" fill-rule="evenodd"/><path d="M46.896 33.973s32.245.0 32.245.0c5.365.0 9.97-3.236 11.981-7.861C91.046 26.115 90.975 26.136 90.898 26.136H58.653c-5.348.0-10.477 2.124-14.258 5.905l-2.704 2.703C43.382 34.291 45.115 33.973 46.896 33.973z" id="path-2" class="cls-4" fill-rule="evenodd"/><path d="M166.337.01s-49.313.0-49.313.0c-5.364.0-9.792 3.241-11.837 7.846C105.214 7.856 105.239 7.848 105.267 7.848H154.58C161.795 7.848 167.643 13.696 167.643 20.91V33.973s0 3.919.0 3.919.0 172.426.0 172.426C167.643 212.17 167.247 213.925 166.552 215.521 173.665 215.403 179.399 209.621 179.399 202.481V30.055s0-3.919.0-3.919.0-13.063.0-13.063C179.399 5.858 173.551.01 166.337.01z" id="path-3" class="cls-4" fill-rule="evenodd"/><path d="M51.091 30.504S14.317 66.162 14.317 66.162C13.772 66.69 12.902 66.676 12.373 66.132L.371 53.755C-.157 53.21-.144 52.339.401 51.811L37.175 16.153C37.72 15.624 38.591 15.639 39.119 16.184L51.121 28.561C51.649 29.105 51.636 29.976 51.091 30.504z" id="path-4" class="cls-6" fill-rule="evenodd"/><path d="M48.327 25.678s-6.413-6.613-6.413-6.613C39.842 16.928 36.43 16.875 34.294 18.947L34.123 19.113s6.367 6.565 6.367 6.565C42.561 27.815 42.509 31.226 40.372 33.297L9.531 63.201S9.579 63.251 9.579 63.251C11.651 65.386 15.062 65.44 17.198 63.368L48.21 33.297C50.346 31.226 50.398 27.815 48.327 25.678z" id="path-5" class="cls-4" fill-rule="evenodd"/><path d="M60.795 168.237S60.154 167.595 60.154 167.595C59.311 166.752 59.311 165.385 60.154 164.542l78.694-78.691C139.691 85.008 141.058 85.008 141.901 85.851L142.543 86.493C143.386 87.335 143.386 88.703 142.543 89.546L63.849 168.237C63.006 169.08 61.639 169.08 60.795 168.237z" id="path-6" class="cls-4" fill-rule="evenodd"/><path d="M141.901 168.237S142.543 167.595 142.543 167.595C143.386 166.752 143.386 165.385 142.543 164.542L63.849 85.851C63.006 85.008 61.639 85.008 60.795 85.851L60.154 86.493C59.311 87.335 59.311 88.703 60.154 89.546l78.694 78.691C139.691 169.08 141.058 169.08 141.901 168.237z" id="path-7" class="cls-4" fill-rule="evenodd"/><path d="M54.059 169.338S51.215 166.494 51.215 166.494C50.98 166.259 50.98 165.879 51.215 165.643L132.112 84.75C132.346 84.515 132.726 84.515 132.961 84.75L135.806 87.594C136.041 87.829 136.041 88.21 135.806 88.444L54.909 169.338C54.674 169.573 54.294 169.573 54.059 169.338z" id="path-8" class="cls-10" fill-rule="evenodd"/><path d="M132.961 169.338S135.807 166.494 135.807 166.494C136.042 166.26 136.042 165.879 135.807 165.644L54.909 84.749C54.674 84.514 54.293 84.514 54.059 84.749L51.215 87.595C50.98 87.83 50.981 88.21 51.215 88.444l80.896 80.894C132.346 169.573 132.726 169.573 132.961 169.338z" id="path-9" class="cls-10" fill-rule="evenodd"/></g></svg>

<svg xmlns="http://www.w3.org/2000/svg" xmlns:xlink="http://www.w3.org/1999/xlink" preserveAspectRatio="xMidYMid" width="179" height="216" viewBox="0 0 179 216">
  <defs>
    <style>

      .cls-3 {
        fill: #142a3b;
      }

      .cls-4 {
        fill: #060606;
        opacity: 0.35;
      }

      .cls-6 {
        fill: #fbb713;
      }

      .cls-10 {
        fill: #ededed;
      }
    </style>
  </defs>
  <g id="group-21svg">
    <path d="M166.337,0.011 C166.337,0.011 117.024,0.011 117.024,0.011 C109.710,0.011 104.094,6.008 103.959,13.320 C103.827,20.419 98.030,26.135 90.898,26.135 C90.898,26.135 58.653,26.135 58.653,26.135 C53.305,26.135 48.176,28.260 44.395,32.041 C44.395,32.041 13.528,62.908 13.528,62.908 C9.746,66.688 7.621,71.818 7.621,77.167 C7.621,77.167 7.621,202.481 7.621,202.481 C7.621,209.695 13.469,215.543 20.684,215.543 C20.684,215.543 166.337,215.543 166.337,215.543 C173.551,215.543 179.399,209.695 179.399,202.481 C179.399,202.481 179.399,30.054 179.399,30.054 C179.399,30.054 179.399,26.135 179.399,26.135 C179.399,26.135 179.399,13.073 179.399,13.073 C179.399,5.858 173.551,0.011 166.337,0.011 ZM157.846,26.135 C157.846,26.135 129.107,26.135 129.107,26.135 C126.221,26.135 123.882,23.796 123.882,20.911 C123.882,18.025 126.221,15.685 129.107,15.685 C129.107,15.685 157.846,15.685 157.846,15.685 C160.732,15.685 163.071,18.025 163.071,20.911 C163.071,23.796 160.732,26.135 157.846,26.135 Z" id="path-1" class="cls-3" fill-rule="evenodd"/>
    <path d="M46.896,33.973 C46.896,33.973 79.141,33.973 79.141,33.973 C84.506,33.973 89.111,30.737 91.122,26.112 C91.046,26.115 90.975,26.136 90.898,26.136 C90.898,26.136 58.653,26.136 58.653,26.136 C53.305,26.136 48.176,28.260 44.395,32.041 C44.395,32.041 41.691,34.744 41.691,34.744 C43.382,34.291 45.115,33.973 46.896,33.973 Z" id="path-2" class="cls-4" fill-rule="evenodd"/>
    <path d="M166.337,0.010 C166.337,0.010 117.024,0.010 117.024,0.010 C111.660,0.010 107.232,3.251 105.187,7.856 C105.214,7.856 105.239,7.848 105.267,7.848 C105.267,7.848 154.580,7.848 154.580,7.848 C161.795,7.848 167.643,13.696 167.643,20.910 C167.643,20.910 167.643,33.973 167.643,33.973 C167.643,33.973 167.643,37.892 167.643,37.892 C167.643,37.892 167.643,210.318 167.643,210.318 C167.643,212.170 167.247,213.925 166.552,215.521 C173.665,215.403 179.399,209.621 179.399,202.481 C179.399,202.481 179.399,30.055 179.399,30.055 C179.399,30.055 179.399,26.136 179.399,26.136 C179.399,26.136 179.399,13.073 179.399,13.073 C179.399,5.858 173.551,0.010 166.337,0.010 Z" id="path-3" class="cls-4" fill-rule="evenodd"/>
    <path d="M51.091,30.504 C51.091,30.504 14.317,66.162 14.317,66.162 C13.772,66.690 12.902,66.676 12.373,66.132 C12.373,66.132 0.371,53.755 0.371,53.755 C-0.157,53.210 -0.144,52.339 0.401,51.811 C0.401,51.811 37.175,16.153 37.175,16.153 C37.720,15.624 38.591,15.639 39.119,16.184 C39.119,16.184 51.121,28.561 51.121,28.561 C51.649,29.105 51.636,29.976 51.091,30.504 Z" id="path-4" class="cls-6" fill-rule="evenodd"/>
    <path d="M48.327,25.678 C48.327,25.678 41.914,19.065 41.914,19.065 C39.842,16.928 36.430,16.875 34.294,18.947 C34.294,18.947 34.123,19.113 34.123,19.113 C34.123,19.113 40.490,25.678 40.490,25.678 C42.561,27.815 42.509,31.226 40.372,33.297 C40.372,33.297 9.531,63.201 9.531,63.201 C9.531,63.201 9.579,63.251 9.579,63.251 C11.651,65.386 15.062,65.440 17.198,63.368 C17.198,63.368 48.210,33.297 48.210,33.297 C50.346,31.226 50.398,27.815 48.327,25.678 Z" id="path-5" class="cls-4" fill-rule="evenodd"/>
    <path d="M60.795,168.237 C60.795,168.237 60.154,167.595 60.154,167.595 C59.311,166.752 59.311,165.385 60.154,164.542 C60.154,164.542 138.848,85.851 138.848,85.851 C139.691,85.008 141.058,85.008 141.901,85.851 C141.901,85.851 142.543,86.493 142.543,86.493 C143.386,87.335 143.386,88.703 142.543,89.546 C142.543,89.546 63.849,168.237 63.849,168.237 C63.006,169.080 61.639,169.080 60.795,168.237 Z" id="path-6" class="cls-4" fill-rule="evenodd"/>
    <path d="M141.901,168.237 C141.901,168.237 142.543,167.595 142.543,167.595 C143.386,166.752 143.386,165.385 142.543,164.542 C142.543,164.542 63.849,85.851 63.849,85.851 C63.006,85.008 61.639,85.008 60.795,85.851 C60.795,85.851 60.154,86.493 60.154,86.493 C59.311,87.335 59.311,88.703 60.154,89.546 C60.154,89.546 138.848,168.237 138.848,168.237 C139.691,169.080 141.058,169.080 141.901,168.237 Z" id="path-7" class="cls-4" fill-rule="evenodd"/>
    <path d="M54.059,169.338 C54.059,169.338 51.215,166.494 51.215,166.494 C50.980,166.259 50.980,165.879 51.215,165.643 C51.215,165.643 132.112,84.750 132.112,84.750 C132.346,84.515 132.726,84.515 132.961,84.750 C132.961,84.750 135.806,87.594 135.806,87.594 C136.041,87.829 136.041,88.210 135.806,88.444 C135.806,88.444 54.909,169.338 54.909,169.338 C54.674,169.573 54.294,169.573 54.059,169.338 Z" id="path-8" class="cls-10" fill-rule="evenodd"/>
    <path d="M132.961,169.338 C132.961,169.338 135.807,166.494 135.807,166.494 C136.042,166.260 136.042,165.879 135.807,165.644 C135.807,165.644 54.909,84.749 54.909,84.749 C54.674,84.514 54.293,84.514 54.059,84.749 C54.059,84.749 51.215,87.595 51.215,87.595 C50.980,87.830 50.981,88.210 51.215,88.444 C51.215,88.444 132.111,169.338 132.111,169.338 C132.346,169.573 132.726,169.573 132.961,169.338 Z" id="path-9" class="cls-10" fill-rule="evenodd"/>
  </g>
</svg>
